X: 1825
T: Sûr Sâl Etti
C: Ahmet Avni Konuk
O: Turkey
F: http://compmusic.upf.edu/node/140
N: buzurk--kupe--devrirevanihindi--sur_sal_itdi--ahmet_avni_konuk
N: makam= buzurk
N: form= kupe
N: usul= devrirevanihindi = 14/8
M: 14/8
L: 1/16
K: C ^f   
Q: 1/4=102
%%MIDI tuningsystem comma53
c4 c2dc c_1/4Bc4d4e2 edcd e2z2  | \
w:  Sûr  sâl_ it *  *  *  *  di   | 
d4 e2e2 ^3/4f2d2 g2f2 g2^2/4fe e4 e2z2  | 
w:  küs *  fend_ *  *  *  i   | 
c4 d2g=f fef2 a2a2 g2f2 e2ed edc2  | \
w:  sab rı ma  *  *  *  *  *  mâ  | 
cdc2 _2/4B2A4e4d2 c2_1/4B2 c6z2  | 
w:  nend_ *  *  *  *  i  gürk    | 
d2d2 e2e4e2 a2g2 =f2e2 fede d2c2  | \
w:  Gam *  ze si  *  *  gû  | 
_2/4BcB2 A2A2 G^3/4FG2 AGG2 F2FE E4 A4  | 
w:  yâ  *  *  o  şâ *  *  *  *  *  hın   | 
AG^3/4F2 G2A4AA GFE4D2 AGFG A2z2  | \
w:  leş *  *  ker_ i  *  *  *  *  hân_  | 
A_7/8BAB AGAc _2/4BAAG G^3/4FG2 F2AG G6z2  | 
w:  ı  *  *  *  *  *  *  *  *  *  Bü *  *  *  zürk    | 
|


